;Sliced by ideaMaker 4.2.1.5321, 2022-01-15 17:31:56 UTC+0100
;Dimension: 220.000 220.000 220.000 0.300
;Plate Shape: 0
;Origin Center: 0
;Extruder Offset #1: 25.000 0.000
;Filament Diameter #1: 1.750
;Filament Diameter #2: 1.750
;Filament Compensation #1: 100.00
;Filament Compensation #2: 96.00
;Filament Density #1: 1240.00
;Filament Density #2: 1240.00
;Bounding Box: 26.200 193.800 35.000 185.000 0.000 0.240
;Model Gap: 0.000
M221 T0 S100.00
M117
G21	;metric values
G90	;absolute positioning
M82	;set extruder to absolute mode
M107	;start with the fan off
G28 X0 Y0	;move X/Y to min endstops
G28 Z0	;move Z to min endstops
G1 Z15.0 F9000	;move the nozzle up 15mm
G91	;Relative positioning
G0 X5 Y5	;Move away from endstops
G90	;absolute positioning
M117 Heating	;Info
M190 S52		;Preheat bed
M140 S60	;Set bed temp
M104 T0 S195	;Set hotend temp
M109 T0 S195	;Wait for hotend temp
T0
M190 S60	;Wait for bed temp
G92 E0	;zero the extruded length
G1 F200 E3	;extrude 3mm of feed stock
G92 E0	;zero the extruded length again
G1 F7200.0	;Set travel speed
M572 D0 S0.09	;set extruder pressure
; cleanup move
G1 F1500 X20 Y100 Z5
G1 F1500 X20 Y30 Z0.5
G1 F1500 X20 Y10 Z0.1
G1 F1500 X20 Y0 Z0.1
G1 F1500 X25 Y0 Z0.1
G1 F1500 X25 Y40 Z0.1
M1001
;TOTAL_NUM: 1
;PRINTING_TIME: 0
M117 ETA: 121
;LAYER:0
;Z:0.240
;HEIGHT:0.240
M106 S0
M140 S60
;PRINTING: Bed_Level_Stripes.stl
;PRINTING_ID: 0
M204 S800.00
M205 X15.00 Y15.00
G0 F7200 X26.600 Y35.150
G0 F600 Z0.240
;TYPE:WALL-OUTER
;WIDTH:0.585
G1 F900 X26.600 Y184.350 E8.3607
G1 X26.621 Y184.453 E8.3666
G1 X26.642 Y184.557 E8.3725
;WIDTH:0.500
G1 X26.850 Y184.600 E8.3827
;WIDTH:0.585
G1 X43.350 Y184.600 E9.3073
G1 X43.453 Y184.578 E9.3132
G1 X43.557 Y184.557 E9.3191
;WIDTH:0.500
G1 X43.600 Y184.350 E9.3293
;WIDTH:0.586
G1 X43.600 Y35.650 E17.6762
G1 X43.621 Y35.546 E17.6821
G1 X43.642 Y35.442 E17.6881
;WIDTH:0.500
G1 X43.850 Y35.400 E17.6982
;WIDTH:0.586
G1 X59.550 Y35.400 E18.5795
G1 X59.653 Y35.421 E18.5854
G1 X59.757 Y35.442 E18.5914
;WIDTH:0.500
G1 X59.800 Y35.650 E18.6015
;WIDTH:0.585
G1 X59.800 Y184.350 E26.9342
G1 X59.821 Y184.453 E26.9401
G1 X59.842 Y184.557 E26.9460
;WIDTH:0.500
G1 X60.050 Y184.600 E26.9562
;WIDTH:0.585
G1 X76.550 Y184.600 E27.8808
G1 X76.653 Y184.578 E27.8867
G1 X76.757 Y184.557 E27.8927
;WIDTH:0.500
G1 X76.800 Y184.350 E27.9028
;WIDTH:0.586
G1 X76.800 Y35.650 E36.2497
G1 X76.821 Y35.546 E36.2556
G1 X76.842 Y35.442 E36.2616
;WIDTH:0.500
G1 X77.050 Y35.400 E36.2718
;WIDTH:0.586
G1 X92.750 Y35.400 E37.1530
G1 X92.853 Y35.421 E37.1589
G1 X92.957 Y35.442 E37.1649
;WIDTH:0.500
G1 X93.000 Y35.650 E37.1751
;WIDTH:0.585
G1 X93.000 Y184.350 E45.5077
G1 X93.021 Y184.453 E45.5136
G1 X93.042 Y184.557 E45.5196
;WIDTH:0.500
G1 X93.250 Y184.600 E45.5297
;WIDTH:0.585
G1 X109.750 Y184.600 E46.4543
G1 X109.853 Y184.578 E46.4602
G1 X109.957 Y184.557 E46.4662
;WIDTH:0.500
G1 X110.000 Y184.350 E46.4763
;WIDTH:0.586
G1 X110.000 Y35.650 E54.8232
G1 X110.021 Y35.546 E54.8292
G1 X110.042 Y35.442 E54.8351
;WIDTH:0.500
G1 X110.250 Y35.400 E54.8453
;WIDTH:0.586
G1 X125.950 Y35.400 E55.7266
G1 X126.053 Y35.421 E55.7325
G1 X126.157 Y35.442 E55.7384
;WIDTH:0.500
G1 X126.200 Y35.650 E55.7486
;WIDTH:0.585
G1 X126.200 Y184.350 E64.0812
G1 X126.221 Y184.453 E64.0871
G1 X126.242 Y184.557 E64.0931
;WIDTH:0.500
G1 X126.450 Y184.600 E64.1032
;WIDTH:0.585
G1 X142.950 Y184.600 E65.0278
G1 X143.053 Y184.578 E65.0338
G1 X143.157 Y184.557 E65.0397
;WIDTH:0.500
G1 X143.200 Y184.350 E65.0498
;WIDTH:0.586
G1 X143.200 Y35.650 E73.3967
G1 X143.221 Y35.546 E73.4027
G1 X143.242 Y35.442 E73.4086
;WIDTH:0.500
G1 X143.450 Y35.400 E73.4188
;WIDTH:0.586
G1 X159.150 Y35.400 E74.3001
G1 X159.253 Y35.421 E74.3060
G1 X159.357 Y35.442 E74.3119
;WIDTH:0.500
G1 X159.400 Y35.650 E74.3221
;WIDTH:0.585
G1 X159.400 Y184.350 E82.6548
G1 X159.421 Y184.453 E82.6606
G1 X159.442 Y184.557 E82.6666
;WIDTH:0.500
G1 X159.650 Y184.600 E82.6768
;WIDTH:0.585
G1 X176.150 Y184.600 E83.6014
G1 X176.253 Y184.578 E83.6073
G1 X176.357 Y184.557 E83.6132
;WIDTH:0.500
G1 X176.400 Y184.350 E83.6233
;WIDTH:0.586
G1 X176.400 Y35.650 E91.9702
G1 X176.421 Y35.546 E91.9762
G1 X176.442 Y35.442 E91.9822
;WIDTH:0.500
G1 X176.650 Y35.400 E91.9923
;WIDTH:0.586
G1 X193.150 Y35.400 E92.9185
G1 X193.253 Y35.421 E92.9244
G1 X193.357 Y35.442 E92.9304
;WIDTH:0.500
G1 X193.400 Y35.650 E92.9405
G1 X193.400 Y184.850 E100.0864
;PRINTING_TIME: 121
M117 ETA: 0
G1 F1800 E99.6864
G0 F600 Z5.240
G0 F7200 X193.400 Y184.850
G92 E0
M1002
M104 T0 S0
M104 S0 ;extruder heater off
M140 S0 ;heated bed heater off (if you have it)
M107; Fan off
G91 ;relative positioning
G1 E-1 F300  ;retract the filament a bit before lifting the nozzle, to release some of the pressure
G1 Z+0.5 E-2 X-20 Y-20 F1800.0 ;move Z up a bit and retract filament even more
G90 ;absolute positioning
G1 X200 Y200 F7200.0 ;move object to front and print head to left side
M84 ;steppers off
;Data start:82168:604f507840b8109db13a9b002a0db424
;gaORfX49
;Data end
;Recover start:24
;G21
;G90
;G28 X0 Y0
;G92 X0 Y0 Z{z}
;M221 T0 S100.00
;G21
;G90
;M82
;M106 S0
;T0
;G92 E0
;G1 F140 E29
;G1 X20 Y0 F140 E30
;G92 E0
;T{current_extruder}
;M106 S{current_fan_speed}
;G92 E{current_extrusion}
;G0 F6000 X{x} Y{y} Z{z}
;G0 F{current_travel_speed}
;G1 F{current_extrude_speed} E{current_extrusion}
;{current_unit}
;{current_pos_abs}
;{current_extrude_abs}
;M117 Printing...
;Recover end
;Print Time: 121
;Material#1 Used: 100.1
;Material#2 Used: 0.0
;Material#1 Cost: 0.00
;Material#2 Cost: 0.00
